theme/dist/icons/arrow-down.svg

<svg fill="none" height="24" viewBox="0 0 24 24" width="24" xmlns="http://www.w3.org/2000/svg"><path d="m20.719 6h-1.7578c-.1195 0-.232.05859-.3023.15469l-6.6586 9.17811-6.6586-9.17811c-.07031-.0961-.18281-.15469-.30234-.15469h-1.75781c-.15235 0-.24141.17344-.15235.29766l8.2641 11.39294c.3.4125.914.4125 1.2117 0l8.264-11.39294c.0915-.12422.0024-.29766-.15-.29766z" fill="#8c8c8c"/></svg>

<svg width="24" height="24" viewBox="0 0 24 24" fill="none" xmlns="http://www.w3.org/2000/svg"><path d="M20.719 6H18.9612C18.8417 6 18.7292 6.05859 18.6589 6.15469L12.0003 15.3328 5.3417 6.15469C5.27139 6.05859 5.15889 6 5.03936 6H3.28155C3.1292 6 3.04014 6.17344 3.1292 6.29766L11.3933 17.6906C11.6933 18.1031 12.3073 18.1031 12.605 17.6906L20.869 6.29766C20.9605 6.17344 20.8714 6 20.719 6V6z" fill="#8c8c8c"/></svg>
